logos/glamorous.svg

<?xml version="1.0" encoding="UTF-8"?>
<svg width="256px" height="342px" viewBox="0 0 256 342" version="1.1" xmlns="http://www.w3.org/2000/svg" xmlns:xlink="http://www.w3.org/1999/xlink" preserveAspectRatio="xMidYMid">
    <g>
				<g transform="translate(150.044444, 0.000000)">
						<path d="M60.18176,19.10528 C38.4957156,3.48785778 13.7078044,-6.26289778 13.7078044,4.63061333 C13.7078044,6.04928 13.5022933,179.218347 13.5022933,179.218347 L92.70656,179.218347 L92.70656,56.5289244 C92.8928711,49.2037689 80.7300267,33.9027911 60.18176,19.10528" fill="#D53A56"></path>
						<path d="M90.2803911,56.4782222 C86.2590578,61.968 66.7518578,54.5169778 46.7099022,39.8360889 C26.6679467,25.1552 13.6802133,8.80391111 17.7022578,3.31413333 C21.7235911,-2.17564444 41.23008,5.27466667 61.2720356,19.9555556 C81.3147022,34.6364444 94.3017244,50.9884444 90.2803911,56.4782222" fill="#E47176"></path>
						<polygon fill="#505457" points="5.45848889 341.707378 100.273067 341.707378 100.273067 331.040711 5.45848889 331.040711"></polygon>
						<polygon fill="#E8E8E3" points="7.11751111 196.048356 98.6140444 196.048356 98.6140444 114.507378 7.11751111 114.507378"></polygon>
						<polygon fill="#ADBBB5" points="5.45848889 209.203911 100.273067 209.203911 100.273067 196.048356 5.45848889 196.048356"></polygon>
						<polygon fill="#393D3E" points="0.242488889 331.751822 105.487644 331.751822 105.487644 209.203911 0.242488889 209.203911"></polygon>
				</g>
				<path d="M198.328178,51.4503111 C189.589333,51.7148444 177.937778,53.5694222 162.5792,78.4604444 C155.165156,92.7601778 149.8688,102.522311 149.8688,102.522311 C149.8688,102.522311 111.207111,98.5863111 85.5196444,113.415111 C69.3667556,122.418489 41.2970667,143.337956 47.1232,175.644444 C50.3011556,187.560533 60.6286222,201.3312 97.1719111,204.508444 C97.4364444,205.038933 42.0913778,223.574756 37.5900444,243.965156 C34.4128,259.059911 40.5027556,267.268267 67.7788444,275.477333 L16.6698667,288.982044 C16.6698667,288.982044 0.0526222222,294.060089 0,308.525511 L0,308.647111 C0.00284444444,309.639111 0.0832,310.6752 0.252444444,311.756089 C1.31128889,317.846044 11.6387556,335.588267 67.7788444,334.529422 C90.0216889,332.675556 164.962844,325.790578 164.168533,275.477333 C163.903289,263.296711 154.1056,251.114667 134.774756,242.376533 C117.562311,235.491556 96.9066667,227.811556 96.9066667,227.811556 C96.9066667,227.811556 77.3112889,221.986133 93.7294222,212.718222 C105.910044,206.362311 112.530489,204.244622 112.530489,204.244622 L118.885689,202.655289 C118.885689,202.655289 164.962844,198.418489 185.617067,161.345422 C188.529778,154.461156 206.7904,115.546311 156.512,103.6224 C157.290667,103.415467 168.846222,72.5176889 183.763911,62.5720889 C184.822044,62.0430222 189.324089,61.2487111 187.207111,63.8954667 C182.784,69.4264889 177.615644,73.4940444 174.743467,80.3008 C169.381689,93.0076444 176.768,105.097956 190.154667,106.382222 C212.178489,108.495644 232.5184,79.1793778 219.697778,59.6202667 C215.599644,53.3667556 208.381156,51.3379556 201.283556,51.3372444 C200.292978,51.3372444 199.305956,51.3770667 198.328178,51.4503111 M107.234844,196.689778 C98.6702222,194.983111 98.0316444,173.397333 103.359289,148.983467 C108.687644,124.570311 120.416711,106.747733 128.948622,108.610133 C137.481244,110.472533 139.585422,131.313778 134.257067,155.726933 C129.220978,178.8032 119.682133,196.871822 109.084444,196.873956 C108.470044,196.873956 107.854933,196.813511 107.234844,196.689778 M57.7152,319.435378 C57.9804444,297.7216 75.9872,276.270933 75.9872,276.270933 C75.9872,276.270933 85.0318222,279.697067 97.4769778,283.404089 C119.945244,290.640356 120.475022,295.867022 119.150933,302.286222 C115.972978,319.561244 90.8167111,325.790578 81.8133333,327.379911 C77.8083556,328.024178 74.4668444,328.300089 71.6807111,328.300089 C58.4376889,328.3008 57.7152,322.0608 57.7152,319.435378" fill="#F93954"></path>
    </g>
</svg>

<svg width="256" height="342" xmlns="http://www.w3.org/2000/svg" preserveAspectRatio="xMidYMid">
	<path d="M210.226 19.105C188.54 3.488 163.752-6.263 163.752 4.631c0 1.418-.205 174.587-.205 174.587h79.204V56.528c.186-7.324-11.977-22.625-32.525-37.423" fill="#D53A56"/>
	<path d="M240.325 56.478c-4.021 5.49-23.529-1.961-43.57-16.642-20.043-14.68-33.03-31.032-29.008-36.522 4.021-5.49 23.528 1.96 43.57 16.642 20.042 14.68 33.03 31.032 29.008 36.522" fill="#E47176"/>
	<path fill="#505457" d="M155.503 341.707h94.815v-10.666h-94.815z"/>
	<path fill="#E8E8E3" d="M157.162 196.048h91.496v-81.54h-91.496z"/>
	<path fill="#ADBBB5" d="M155.503 209.204h94.815v-13.156h-94.815z"/>
	<path fill="#393D3E" d="M150.287 331.752h105.245V209.204H150.287z"/>
	<path d="M198.328 51.45c-8.739.265-20.39 2.12-35.749 27.01-7.414 14.3-12.71 24.062-12.71 24.062s-38.662-3.936-64.35 10.893c-16.152 9.003-44.222 29.923-38.396 62.23 3.178 11.916 13.506 25.686 50.049 28.863.264.53-55.08 19.067-59.582 39.457-3.177 15.095 2.913 23.303 30.189 31.512l-51.11 13.505S.054 294.06 0 308.526v.121c.003.992.083 2.028.252 3.11 1.06 6.089 11.387 23.831 67.527 22.772 22.243-1.853 97.184-8.738 96.39-59.052-.266-12.18-10.063-24.362-29.394-33.1-17.213-6.885-37.868-14.565-37.868-14.565s-19.596-5.826-3.178-15.094c12.181-6.356 18.801-8.473 18.801-8.473l6.356-1.59s46.077-4.237 66.731-41.31c2.913-6.884 21.173-45.799-29.105-57.723.779-.207 12.334-31.104 27.252-41.05 1.058-.529 5.56-1.323 3.443 1.323-4.423 5.531-9.591 9.599-12.464 16.406-5.361 12.707 2.025 24.797 15.412 26.081 22.023 2.114 42.363-27.203 29.543-46.762-4.098-6.253-11.317-8.282-18.414-8.283-.991 0-1.978.04-2.956.113m-91.093 145.24c-8.565-1.707-9.203-23.293-3.876-47.707 5.329-24.413 17.058-42.235 25.59-40.373 8.532 1.863 10.636 22.704 5.308 47.117-5.036 23.076-14.575 41.145-25.173 41.147a9.42 9.42 0 0 1-1.85-.184M57.716 319.435c.265-21.713 18.272-43.164 18.272-43.164s9.045 3.426 21.49 7.133c22.468 7.236 22.998 12.463 21.674 18.882-3.178 17.275-28.334 23.505-37.338 25.094-4.005.644-7.346.92-10.132.92-13.243 0-13.966-6.24-13.966-8.865" fill="#F93954"/>
</svg>
